X: 611
T: Across The Black River
R: jig
M: 6/8
K: Bminor
A|:~B3 BAB|FAB A2f|ecA ABc|ABA F2E|
~B3 BAB|AFE A2e|~f3 fec|1 ~B3 B2F:|2 ~B3 Bcd||
|:~e3 e2c|ABA F2A|EFA cBA|Bce Bcd|
~e3 e2c|ABA F2A|BcB A2E|1 ~F3 F2d:|2 ~F3 F2A||

